X: 5
T: The Crooked Road
R: reel
M: 4/4
L: 1/8
K: Gmaj
G2 (3GGG FGAF|G2FG AdcA|G2 AG FGAg|fdcA d2 cA|
G2 (3GGG FGAF|G2FG AdcA|GBAG FGAg|fdcA d2 Bc||
dg g2 fgaf|dg g2 agfe|dg g2 fgag|fdcA d2 Bc|
dg g2 fgaf|dg g2 a2ga|bgaf gbag|fdcA d2 cA||